X:3
%%staffsep .8in
%%staffwidth 750
T:荷塘月色 (Moonlight over the Lotus Pond)
T:(Hulusi in Bb 2)
C:Composed by ZHANG Chao
C:Arranged by LUO Zijun
L:1/8
M:4/4
Q:1/4=98
%%barnumbers 0
%%measurenb 0
V:2 clef=treble
%%jianpu 1
%%MIDI program 5
K:Bbmaj
%%visualtranspose -10_of_semitones
F3f BfBc | d8 | B3f BfBc | c8 |
F3f BfcB | G4 z FBc | B3 f BfBG| B8 ||
BB2 GF2G2 | B2 Bc d4 | cc2 Bc2 cf | cBBG B4 | 
BB2 GF2f2 | dcdc B4 | cc2B cc2d | cBGc B4 |
|: BB2 GF2G2 | BB2 c d4 | cc2 B c2 cf | fddc d4 |
BBBG F2 f2 | dcdc B4 | cc2 B cc2 d | cBGc B4 ||
cc2c c2 c2 | dcBG F4 | g2gf dcBG | c2 cd c4 |
Bc2c c2 c2 | dcBG F4 | GBGF c2 dB | B8 || 
F3f BfBc | d8 | B3f BfBc | c3 f/2d/2 c2 f2 | 
F3f BfcB | G4 z FBc | B3 f BfBG |1 B8 :|2 B8 || B8 |]

